X: 7581
T: Cocus, The
R: reel
M: 4/4
K: Bminor
|:BFdc B3d|BAGB AFEF|D2FA dfaf|gbag fedc|
BFdc B3d|BAGB AFEF|D2FA dfaf|1 edcA B4:|2 edcA B3c||
|:d~A3 f2fe|d~B3 g2gf|d~A3 f2fe|d~B2A B3c|
d~A3 f2fe|d~B3 g3a|b~f2b afed|1 edcd B3c:|2 edcd B4||

